X:13
T:Jamie Allen
R:32-bar reel
M:4/4
L:1/4
K:G %Transposed from D
G/2A/2|"G"BG GA|"G"B>AG A/2B/2|"D7"cA AB|"D7"cd/c/ BA|
"G"Gg g/2f/2e|"G"d2 B>c|"G"dd "D7"c/2B/2A|"G" G2 G:|
B/2A/2|:"G"Gg g>f|"C"ed cB|"Am"Aa a>g|"D"fd ef|
"G"g>a ge|"G"d2 B>c|"G"dd "D7"c/2B/2A|"G" G2 G:|
